X: 9592
T: Davy Doody's Big Flute
R: jig
M: 6/8
K: Dmixolydian
||c|:BAG AGE|GDB, A,B,D|GFG AGA|BAG ABc|
BAG AGE|GDB, A,B,D|GBG AGE|GED D3:|
|:B3 cBc|dgg BAG|BdB cBc|dBG ABc|
B3 cBc|dgg BAG|BAG AGE|GED D3:|

